libs/icons/src/svg/align-left.svg

<svg width="16" height="16" viewBox="0 0 16 16" fill="none" xmlns="http://www.w3.org/2000/svg">
<path fill-rule="evenodd" clip-rule="evenodd" d="M0.666667 1.33334C0.298477 1.33334 0 1.63182 0 2.00001C0 2.3682 0.298477 2.66668 0.666667 2.66668H15.3333C15.7015 2.66668 16 2.3682 16 2.00001C16 1.63182 15.7015 1.33334 15.3333 1.33334H0.666667ZM0.666667 5.33334C0.298477 5.33334 0 5.63182 0 6.00001C0 6.3682 0.298477 6.66668 0.666667 6.66668H8.66667C9.03486 6.66668 9.33333 6.3682 9.33333 6.00001C9.33333 5.63182 9.03486 5.33334 8.66667 5.33334H0.666667ZM0 10C0 9.63182 0.298477 9.33334 0.666667 9.33334H15.3333C15.7015 9.33334 16 9.63182 16 10C16 10.3682 15.7015 10.6667 15.3333 10.6667H0.666667C0.298477 10.6667 0 10.3682 0 10ZM0.666667 13.3333C0.298477 13.3333 0 13.6318 0 14C0 14.3682 0.298477 14.6667 0.666667 14.6667H8.66667C9.03486 14.6667 9.33333 14.3682 9.33333 14C9.33333 13.6318 9.03486 13.3333 8.66667 13.3333H0.666667Z" fill="#202327"/>
</svg>

<svg xmlns="http://www.w3.org/2000/svg" viewBox="0 0 16 16" class="sageicon"><path fill-rule="evenodd" d="M.667 1.333a.667.667 0 0 0 0 1.334h14.666a.667.667 0 1 0 0-1.334H.667Zm0 4a.667.667 0 0 0 0 1.334h8a.667.667 0 0 0 0-1.334h-8ZM0 10c0-.368.298-.667.667-.667h14.666a.667.667 0 1 1 0 1.334H.667A.667.667 0 0 1 0 10Zm.667 3.333a.667.667 0 0 0 0 1.334h8a.667.667 0 0 0 0-1.334h-8Z"/></svg>
